Newaita-dark/actions/24/kt-speed-limits.svg

<?xml version="1.0" encoding="UTF-8"?>
<svg xmlns="http://www.w3.org/2000/svg" xmlns:xlink="http://www.w3.org/1999/xlink" width="24pt" height="24pt" viewBox="0 0 24 24" version="1.1">
<g id="surface1">
<path style=" stroke:none;fill-rule:nonzero;fill:rgb(74.117649%,74.117649%,74.117649%);fill-opacity:1;" d="M 9.257812 1.5 C 8.199219 1.761719 7.199219 2.179688 6.285156 2.726562 L 8.332031 6.132812 C 8.910156 5.785156 9.546875 5.519531 10.222656 5.351562 Z M 14.554688 1.5 L 13.59375 5.351562 C 14.269531 5.519531 14.902344 5.785156 15.484375 6.132812 L 17.527344 2.726562 C 16.617188 2.179688 15.617188 1.761719 14.554688 1.5 Z M 2.539062 6.472656 C 1.992188 7.386719 1.574219 8.386719 1.3125 9.445312 L 5.164062 10.410156 C 5.332031 9.734375 5.597656 9.097656 5.945312 8.519531 Z M 21.273438 6.472656 L 17.867188 8.519531 C 18.214844 9.097656 18.480469 9.734375 18.648438 10.410156 L 22.5 9.445312 C 22.238281 8.386719 21.820312 7.386719 21.273438 6.472656 Z M 5.164062 13.78125 L 1.3125 14.742188 C 1.574219 15.804688 1.992188 16.804688 2.539062 17.714844 L 5.945312 15.671875 C 5.597656 15.089844 5.332031 14.457031 5.164062 13.78125 Z M 18.648438 13.78125 C 18.480469 14.457031 18.214844 15.089844 17.867188 15.671875 L 21.273438 17.714844 C 21.820312 16.804688 22.238281 15.804688 22.5 14.742188 Z M 18.648438 13.78125 "/>
<path style=" stroke:none;fill-rule:nonzero;fill:rgb(93.725491%,32.549021%,31.37255%);fill-opacity:1;" d="M 7.675781 10.046875 L 9.929688 13.203125 C 9.820312 13.820312 10.003906 14.476562 10.484375 14.957031 C 11.261719 15.734375 12.511719 15.734375 13.289062 14.957031 C 14.066406 14.179688 14.066406 12.929688 13.289062 12.148438 C 12.8125 11.671875 12.152344 11.488281 11.535156 11.597656 L 8.378906 9.34375 Z M 7.675781 10.046875 "/>
</g>
</svg>

<svg xmlns="http://www.w3.org/2000/svg" width="32" height="32" viewBox="0 0 24 24"><path d="M9.258 1.5c-1.059.262-2.059.68-2.973 1.227l2.047 3.406a6.897 6.897 0 0 1 1.89-.781zm5.297 0l-.961 3.852a6.948 6.948 0 0 1 1.89.78l2.043-3.405c-.91-.547-1.91-.965-2.972-1.227zM2.539 6.473a10.875 10.875 0 0 0-1.227 2.972l3.852.965a6.897 6.897 0 0 1 .781-1.89zm18.734 0L17.867 8.52c.348.578.613 1.214.781 1.89l3.852-.965a10.875 10.875 0 0 0-1.227-2.972zM5.164 13.78l-3.851.961c.261 1.063.68 2.063 1.226 2.973l3.406-2.043a6.948 6.948 0 0 1-.78-1.89zm13.484 0a6.948 6.948 0 0 1-.78 1.89l3.405 2.044c.547-.91.965-1.91 1.227-2.973zm0 0" fill="#bdbdbd"/><path d="M7.676 10.047l2.254 3.156c-.11.617.074 1.274.554 1.754a1.978 1.978 0 0 0 2.805 0 1.986 1.986 0 1 0-1.754-3.36L8.38 9.345zm0 0" fill="#ef5350"/></svg>
